!!!COM:	Bach, Johann Sebastian
!!!CDT:	1685/02/21/-1750/07/28/
!!!OTL@@DE:	Wir glauben all an einen Gott
!!!SCT:	BWV 437
!!!PC#:	133
!!!AGN:	chorale
**kern	**kern	**kern	**kern
*ICvox	*ICvox	*ICvox	*ICvox
*Ibass	*Itenor	*Ialto	*Isoprn
*I"Bass	*I"Tenor	*I"Alto	*I"Soprano
*clefF4	*clefGv2	*clefG2	*clefG2
*k[]	*k[]	*k[]	*k[]
*d:dor	*d:dor	*d:dor	*d:dor
*M4/4	*M4/4	*M4/4	*M4/4
*met(c)	*met(c)	*met(c)	*met(c)
*MM100	*MM100	*MM100	*MM100
=1-	=1-	=1-	=1-
4r	4r	4r	2d
8DL	8FL	4A	.
8E	8GJ	.	.
8F	4A	8d	4a
8DJ	.	4f	.
4B-	8dL	.	4g
.	[8GJ	16eLL	.
.	.	16dJJ	.
=2	=2	=2	=2
4.C#	8GL]	4.e	4a
.	16FL	.	.
.	16EJJ	.	.
.	4A	.	4e
16BBnXLL	.	16dLL	.
16AAJJ	.	16c#JJ	.
8DL	2A	[2d	2f
8E	.	.	.
8F	.	.	.
8DJ	.	.	.
=3	=3	=3	=3
2AA;	2A;	4d]	2e;
.	.	4c#;	.
4r	4r	4r	2g
8BBL	8DL	8dL	.
8C#J	8AJ	[8eJ	.
=4	=4	=4	=4
8DL	4A	8e]	4f
8FF	.	4d	.
8GG	8B-L	.	4e
8AAJ	16AL	8c#	.
.	16GJJ	.	.
8BB-XL	8FL	16dLL	4d
.	.	16cJ	.
8GGJ	16GL	8B-J	.
.	16FJJ	.	.
4AA	16ELL	4A	4c#
.	16FJ	.	.
.	[8GJ	.	.
=5	=5	=5	=5
2DD;	8GL]	2A;	2d;
.	16FL	.	.
.	16EJJ	.	.
.	4F;	.	.
8DL	4d	8fL	4a
8E	.	8eJ	.
8F	[4A	[4d	4a
8DJ	.	.	.
=6	=6	=6	=6
4BB	8AL]	8dL]	4dd
.	8G#J	16eL	.
.	.	16fJJ	.
8CL	4A	4e	4cc
8DJ	.	.	.
8EL	8G#	4.e	4b
8CJ	4c	.	.
4F	.	.	8aL
.	16BLL	8d	8bJ
.	16AJJ	.	.
=7	=7	=7	=7
8EL	8G#	8e	4cc
8DJ	4A	4f	.
4E	.	.	4b
.	8G#	16eLL	.
.	.	16dJJ	.
2AA;	2A;	2c;	2a;
=8	=8	=8	=8
4r	4r	4r	4r
8EL	8GnXL	8eL	4b
8DJ	8FJ	8fJ	.
8CL	8EL	8gL	4cc
8EJ	8GJ	8eJ	.
4F	4A	8cL	4a
.	.	8dJ	.
=9	=9	=9	=9
8C#L	4.A	8eL	4a
8BB	.	8dJ	.
8C#	.	8eL	4e
8AAJ	8G	8c#J	.
8DL	8.FL	8AL	4f
8AAJ	.	16BL	.
.	16GJk	16c#JJ	.
8FFL	4A	[4d	4f
8DDJ	.	.	.
=10	=10	=10	=10
2AA;	2A;	8dL]	2e;
.	.	16c#L	.
.	.	16BJJ	.
.	.	4c#;	.
8BB-L	8FL	4.d	4d
8AAJ	16GL	.	.
.	16AJJ	.	.
8GGL	8B-XL	.	4e
8AAJ	16AL	8c#	.
.	16GJJ	.	.
=11	=11	=11	=11
8DL	4.F	8AL	4f
8CnXJ	.	16B-L	.
.	.	16cnXJJ	.
8BB-L	.	8dL	4g
8CJ	8E	8cJ	.
8FFL	8FL	8cL	4a
16GGL	8EJ	8c#J	.
16AAJJ	.	.	.
8BB-L	8DL	8dL	4g
16AAL	8B-XJ	[8eJ	.
16GGJJ	.	.	.
=12	=12	=12	=12
8AAL	8C#L	8e]	4f
8FFJ	8AJ	4d	.
8GGL	8B-L	.	4e
8AAJ	16AL	8c#	.
.	16GJJ	.	.
2DD;	2F;	2A;	2d;
=13	=13	=13	=13
8GGL	2G	8BnXL	4dd
8AA	.	8cnX	.
8BB	.	8d	4dd
8GGJ	.	8BJ	.
4C	8GL	4c	4ee
.	8AJ	.	.
8GL	8BL	8dL	4dd
8BJ	8GJ	8gJ	.
=14	=14	=14	=14
8EL	8cL	8gL	4ee
8F	8AJ	8aJ	.
8G	4e	8b-L	4cc#
8EJ	.	8gJ	.
8F#L	8d	8aL	2dd
8DJ	4cnX	8f#J	.
4G	.	[4g	.
.	8B-	.	.
=15	=15	=15	=15
2D;	2A;	8gL]	2dd;
.	.	16f#L	.
.	.	16eJJ	.
.	.	4f#;	.
8CL	4A	8eL	4ee
8DJ	.	8f#	.
[4E	8eL	8g#	4bnX
.	8dJ	8eJ	.
=16	=16	=16	=16
8EL]	8cL	4a	4cc
8FnX	8dJ	.	.
8GnX	4e	4c#	4a
8EJ	.	.	.
8FL	2A	4.d	4a
8G	.	.	.
8A	.	.	4e
8GJ	.	8c#	.
=17	=17	=17	=17
8FL	4.A	4.d	2f
8EJ	.	.	.
4D	.	.	.
.	8G#	16c#LL	.
.	.	16BJJ	.
2AA;	2A;	2c#;	2e;
=18	=18	=18	=18
8CnXL	8AL	2e	4a
8D	8B	.	.
8E	8c	.	4g#
8BBJ	8dJ	.	.
4C	8cL	4e	4a
.	8B	.	.
[4D	8A	[4f	4b
.	8G#J	.	.
=19	=19	=19	=19
8DL]	4A	8fL]	4cc
8D#	.	8f#	.
8E	[4e	8g	4b
8CJ	.	8g#J	.
4FnX	8eL]	8aL	4a
.	8dJ	8AJ	.
4E	4e	8BL	4g#
.	.	[8dnXJ	.
=20	=20	=20	=20
2AA;	2e;	8dL]	2a;
.	.	16cL	.
.	.	16BJJ	.
.	.	4c;	.
4E	4G	8gnXL	4bnX
.	.	8fnX	.
4AA	4A	8e	4cc#
.	.	[8gJ	.
=21	=21	=21	=21
2D	2A	8gL]	2dd
.	.	16fL	.
.	.	16eJJ	.
.	.	4f	.
8DL	4.d	4.f	4a
8CnX	.	.	.
8BB-	.	.	4g
8CJ	16cnXLL	[8e	.
.	16B-XJJ	.	.
=22	=22	=22	=22
8FFL	[2A	8e]	4a
8GGJ	.	4d	.
4AA	.	.	4e
.	.	8c#	.
8DDL	8AL]	2d	2f
8EE	8G	.	.
8FF	8A	.	.
8DDJ	8BJ	.	.
=23	=23	=23	=23
2AA;	2cnX;	2e;	2e;
8EL	8c#L	4e	2g
8D	8dJ	.	.
8C#X	4e	4A	.
8EJ	.	.	.
=24	=24	=24	=24
[4D	4A	8dL	4f
.	.	8cnX	.
8DL]	8GL	8B-	4e
8CnXJ	8AJ	8cJ	.
8CL	8F#L	8AL	4d
8BB-	8GJ	8B-J	.
8AA	[4A	8EL	4c#
8GGJ	.	8eJ	.
=25	=25	=25	=25
8FFL	8AL]	8dL	8dL
8EE	8GJ	8c#J	8eJ
8DD	4A	2d	4f
8FFJ	.	.	.
8GGL	4B-	.	2e
8EEJ	.	.	.
4AA	8AL	4c#	.
.	[8GJ	.	.
=26	=26	=26	=26
2DD;	8GL]	2A;	2d;
.	16FL	.	.
.	16EJJ	.	.
.	4F;	.	.
4D	8B-L	4d	4f
.	8A	.	.
4E	8G	[4cnX	4g
.	8cJ	.	.
=27	=27	=27	=27
8FL	4A	4c]	4a
8E	.	.	.
8D	8dL	8fL	4bnX
8GJ	8BnXJ	8dJ	.
8EL	4.G	8eL	4cc
8D	.	8fJ	.
8E	.	8gL	4b
8CJ	8c	8eJ	.
=28	=28	=28	=28
2F;	2c;	2f;	2a;
4r	4r	4r	4r
8BBL	8dL	8fL	4g
8C#J	8AJ	[8eJ	.
=29	=29	=29	=29
8DL	8A	8e]	4f
8BB-	4B-	4d	.
8GG	.	.	4e
8AAJ	16ALL	8c#	.
.	16GJJ	.	.
2BB-;	2F;	2d;	2d;
=30	=30	=30	=30
8AAL	2A	8c#L	2e
8BBnX	.	8dJ	.
8C#	.	[4e	.
8AAJ	.	.	.
4D	8A	8eL]	4f
.	4B-	8dJ	.
[4E	.	8c#L	4g
.	16ALL	8eJ	.
.	16GJJ	.	.
=31	=31	=31	=31
8E]	8AL	8A	4f
4D	16GL	4B-	.
.	16FJJ	.	.
.	8GL	.	4g
8C#	16FL	[8A	.
.	16EJJ	.	.
8DL	4F	8AL]	4d
8GG#J	.	8BJ	.
4AA	16ELL	4A	4c#
.	16FJ	.	.
.	[8GJ	.	.
=32	=32	=32	=32
1DD;	8GL]	1A;	1d;
.	16F#L	.	.
.	16EJJ	.	.
.	2.F#;	.	.
==	==	==	==
*-	*-	*-	*-
!!!hum2abc: -Q ''
!!!title: @{PC#}. @{OTL@@DE}
!!!YOR1: 371 vierstimmige Choralges&auml;nge von Johann Sebastian Bach, 
!!!YOR2: 4th ed. by Alfred D&ouml;rffel (Leipzig: Breitkopf und H&auml;rtel, 
!!!YOR2: c.1875). 178 pp. Plate "V.A.10".  reprint: J.S. Bach, 371 Four-Part 
!!!YOR4: Chorales (New York: Associated Music Publishers, Inc., c.1940).
!!!SMS: B&H, 4th ed, Alfred D&ouml;rffel, c.1875, plate V.A.10
!!!EED:  Craig Stuart Sapp
!!!EEV:  2009/05/22
